X:75
T: Genevieve's Waltz
R: waltz
C: Manus McGuire (Moving Cloud)
Z: Derek Bone 9th April 2001 (via IRTRAD)
M: 6/8
L: 1/8
K: A
E | c>dc BAG | A>Bc E2E | F>Ad cEc | c>BA B2E |
c>dc BAG | A>Bc E2E | FAd cEc |1 B>AG A2  :|2 B>AG A2e ||
f>ff fga | e2d c>BA | d>ed cBA | FGA  B2e |
f>ff fga | e2d c>BA | d>ed cBA | FAG A2e |
f>ff fga | e2d c>BA | d>e{fg}a ecA | FGA B2E |
c>dc BAG | A>Bc E2E | F>Ad cEc | B>AG A3 ||
